public/images/tech-stack/sonarqube.svg

<?xml version="1.0" encoding="UTF-8"?>
<!-- Uploaded to: SVG Repo, www.svgrepo.com, Generator: SVG Repo Mixer Tools -->
<svg width="800px" height="800px" viewBox="0 -193.5 512 512" version="1.1" xmlns="http://www.w3.org/2000/svg" xmlns:xlink="http://www.w3.org/1999/xlink" preserveAspectRatio="xMidYMid">
		<g>
				<path d="M269.00137,99.3125326 C260.604291,105.018459 249.137083,102.829768 243.426899,94.4326884 C237.716714,86.0356092 239.909664,74.5641429 248.306743,68.8454424 C256.699564,63.1395163 268.17103,65.3324655 273.881214,73.7295448 C279.595657,82.1223658 277.406966,93.5980903 269.00137,99.3125326 M280.39619,69.3010648 C272.241825,57.2845549 255.881998,54.1761026 243.878263,62.3389834 C231.866011,70.5018642 228.749043,86.8574328 236.916182,98.8611683 C244.13801,109.498036 257.776877,113.143016 269.137631,108.190783 L279.310361,124.71242 L287.38382,119.227918 L277.215349,102.706281 C286.004178,93.9642915 287.630793,79.9251585 280.39619,69.3010648 M0,106.127325 C3.78124055,108.171238 9.60639491,109.704174 16.1469191,109.704174 C30.4543158,109.704174 37.7102098,102.857062 37.7102098,93.4550589 C37.6080141,86.1991649 33.7245779,81.3959674 24.2203787,78.1257053 C18.0886372,76.0817915 16.1469191,74.7532475 16.1469191,72.4027466 C16.1469191,69.9500501 18.2930286,68.4171147 22.0742692,68.4171147 C26.2642925,68.4171147 30.6587072,70.0522457 32.9070124,71.1763983 L35.5641003,60.5480465 C32.4982296,59.0151112 27.3884451,57.5843715 21.5632907,57.5843715 C9.19761215,57.5843715 1.22634829,64.6358741 1.22634829,74.0378777 C1.1241526,79.863032 5.10978453,85.483795 15.533745,88.9584485 C21.2567036,90.7979709 22.789639,92.1265149 22.789639,94.6814072 C22.789639,97.2362994 20.8479209,98.7692348 16.1469191,98.7692348 C11.548113,98.7692348 5.62076298,96.8275167 2.75928364,95.0901899 L0,106.127325 Z M65.2008506,109.806369 C78.4862903,109.806369 91.465143,101.426323 91.465143,83.2354898 C91.465143,68.1105276 81.245574,57.5843715 66.0184161,57.5843715 C49.871497,57.5843715 39.2431452,67.9061362 39.2431452,84.0530554 C39.2431452,100.199974 50.4846711,109.806369 65.0986549,109.806369 L65.2008506,109.806369 Z M65.4052419,98.6670391 C58.8647178,98.6670391 55.2878686,92.2287106 55.2878686,83.7464683 C55.2878686,76.2861829 58.1493479,68.7237018 65.5074376,68.7237018 C72.5589403,68.7237018 75.4204196,76.2861829 75.4204196,83.6442726 C75.4204196,92.6374934 71.6391791,98.6670391 65.5074376,98.6670391 L65.4052419,98.6670391 Z M95.9617534,108.682217 L111.495498,108.682217 L111.495498,79.863032 C111.495498,78.4322924 111.597694,77.0015527 112.006477,75.9795958 C113.130629,73.1181165 115.685522,70.1544414 119.977741,70.1544414 C125.598504,70.1544414 127.846809,74.5488561 127.846809,80.9871846 L127.846809,108.682217 L143.380554,108.682217 L143.380554,79.1476622 C143.380554,64.4314828 135.715877,57.5843715 125.496308,57.5843715 C117.116261,57.5843715 112.108673,62.387569 110.064759,65.6578311 L109.758172,65.6578311 L109.042802,58.7085241 L95.5529707,58.7085241 C95.757362,63.2051345 95.9617534,68.4171147 95.9617534,74.6510518 L95.9617534,108.682217 Z M192.33229,79.1476622 C192.33229,67.3951578 187.120309,57.5843715 170.462412,57.5843715 C161.366995,57.5843715 154.519884,60.1392638 151.045231,62.0809819 L153.90671,71.9939639 C157.176972,70.0522457 162.593344,68.314919 167.703128,68.314919 C175.367805,68.314919 176.798545,72.0961596 176.798545,74.7532475 L176.798545,75.3664217 C159.11869,75.3664217 147.468381,81.4981631 147.468381,94.4770158 C147.468381,102.44828 153.497927,109.806369 163.615301,109.806369 C169.542651,109.806369 174.652435,107.66026 177.922697,103.674628 L178.229284,103.674628 L179.149046,108.682217 L193.149855,108.682217 C192.536681,105.922933 192.33229,101.324127 192.33229,96.6231253 L192.33229,79.1476622 Z M177.309523,90.4913839 C177.309523,91.4111451 177.207327,92.3309063 177.002936,93.1484718 C175.980979,96.3165382 172.710717,98.8714305 168.929476,98.8714305 C165.454823,98.8714305 162.797735,96.9297124 162.797735,92.9440804 C162.797735,87.0167304 169.133868,85.0750123 177.309523,85.0750123 L177.309523,90.4913839 Z M199.588184,108.682217 L215.121929,108.682217 L215.121929,83.4398812 C215.121929,82.1113372 215.224124,80.9871846 215.428516,79.9652277 C216.450473,75.0598346 220.333909,72.0961596 226.056867,72.0961596 C227.794194,72.0961596 229.020542,72.3005509 230.246891,72.5049423 L230.246891,57.8909586 C229.122738,57.6865672 228.407368,57.5843715 226.976629,57.5843715 C222.071236,57.5843715 216.04169,60.6502422 213.486798,68.0083319 L213.078015,68.0083319 L212.464841,58.7085241 L199.179401,58.7085241 C199.485988,63.0007431 199.588184,67.8039406 199.588184,75.1620303 L199.588184,108.682217 Z M331.648649,59.4965806 L322.655428,59.4965806 L322.655428,89.746505 C322.655428,91.4838318 322.348841,93.1189628 321.837862,94.3453111 C320.202731,98.4331387 316.012708,102.623162 309.983162,102.623162 C301.909703,102.623162 298.946028,96.1848335 298.946028,86.78283 L298.946028,59.4965806 L289.952807,59.4965806 L289.952807,88.417961 C289.952807,105.689033 299.252615,110.083447 307.019487,110.083447 C315.808317,110.083447 321.122492,104.871467 323.370798,100.885835 L323.575189,100.885835 L324.086167,108.959295 L332.057431,108.959295 C331.750844,105.075859 331.648649,100.579248 331.648649,95.367268 L331.648649,59.4965806 Z M341.459435,96.1848335 C341.459435,100.579248 341.357239,105.586837 341.050652,108.959295 L348.817525,108.959295 L349.328503,100.78364 L349.532894,100.78364 C353.314135,107.324164 358.934898,110.083447 366.088596,110.083447 C377.125731,110.083447 388.367257,101.294618 388.367257,83.5125679 C388.367257,68.5919971 379.782819,58.372428 367.519336,58.372428 C359.548072,58.372428 353.825113,61.8470815 350.657047,67.3656488 L350.452656,67.3656488 L350.452656,36.4003546 L341.459435,36.4003546 L341.459435,96.1848335 Z M350.452656,80.2423058 C350.452656,78.8115661 350.657047,77.5852178 350.963634,76.4610652 C352.700961,69.7161497 358.423919,65.4239307 364.555661,65.4239307 C374.162056,65.4239307 379.27184,73.906173 379.27184,83.9213507 C379.27184,95.2650723 373.753273,102.929749 364.249074,102.929749 C357.810745,102.929749 352.496569,98.6375301 350.759243,92.403593 C350.554851,91.3816361 350.452656,90.2574835 350.452656,89.1333309 L350.452656,80.2423058 Z M434.253122,85.8630688 C434.457513,84.8411119 434.559709,83.5125679 434.559709,81.6730455 C434.559709,72.577629 430.369686,58.372428 414.222767,58.372428 C399.813174,58.372428 390.922149,70.1249324 390.922149,85.0455033 C390.922149,99.8638784 400.119761,109.981252 415.244723,109.981252 C423.113792,109.981252 428.632359,108.243925 431.800425,106.813185 L430.165294,100.374857 C426.895032,101.805596 422.9094,102.929749 416.471072,102.929749 C407.477851,102.929749 399.813174,97.9221603 399.608783,85.8630688 L434.253122,85.8630688 Z M399.710978,79.4247403 C400.426348,73.1908031 404.309785,64.8107565 413.507397,64.8107565 C423.522574,64.8107565 425.975271,73.7017816 425.873075,79.4247403 L399.710978,79.4247403 Z" fill="#070707">
</path>
				<path d="M496.693535,108.787313 L490.4085,108.787313 C490.4085,58.1621224 448.636011,16.9772591 397.295451,16.9772591 L397.295451,10.6922241 C452.106406,10.6922241 496.693535,54.6874689 496.693535,108.787313 Z M501.036851,75.0201532 C493.495661,43.2628423 467.75938,16.7558351 435.49109,7.49009249 L436.938863,2.45269657 C470.995576,12.2336758 498.158339,40.235295 506.129603,73.8065793 L501.036851,75.0201532 Z M508.113903,45.2173349 C500.338514,28.2613666 487.078623,13.4727985 470.808218,3.58110732 L472.984134,0 C489.974168,10.3302811 503.791877,25.7575722 511.916434,43.4672337 L508.113903,45.2173349 Z" fill="#499CD2" fill-rule="nonzero">
</path>
		</g>
</svg>

<svg xmlns="http://www.w3.org/2000/svg" width="800" height="800" preserveAspectRatio="xMidYMid" viewBox="0 -193.5 512 512"><path fill="#070707" d="M269.001 99.313c-8.397 5.705-19.864 3.517-25.574-4.88s-3.517-19.869 4.88-25.588c8.393-5.705 19.864-3.513 25.574 4.885 5.715 8.392 3.526 19.868-4.88 25.583M280.396 69.3c-8.154-12.016-24.514-15.125-36.518-6.962-12.012 8.163-15.129 24.518-6.962 36.522 7.222 10.637 20.86 14.282 32.222 9.33l10.172 16.521 8.074-5.484-10.169-16.522c8.79-8.742 10.416-22.78 3.181-33.405M0 106.127c3.781 2.044 9.606 3.577 16.147 3.577 14.307 0 21.563-6.847 21.563-16.249-.102-7.256-3.985-12.059-13.49-15.33-6.131-2.043-8.073-3.372-8.073-5.722 0-2.453 2.146-3.986 5.927-3.986 4.19 0 8.585 1.635 10.833 2.76l2.657-10.629c-3.066-1.533-8.176-2.964-14-2.964-12.366 0-20.338 7.052-20.338 16.454-.102 5.825 3.884 11.446 14.308 14.92 5.723 1.84 7.256 3.169 7.256 5.723 0 2.555-1.942 4.088-6.643 4.088-4.599 0-10.526-1.941-13.388-3.679zm65.2 3.68c13.286 0 26.265-8.38 26.265-26.572 0-15.124-10.22-25.65-25.447-25.65-16.147 0-26.775 10.321-26.775 26.468s11.242 25.753 25.856 25.753zm.205-11.14c-6.54 0-10.117-6.438-10.117-14.92 0-7.46 2.861-15.023 10.22-15.023 7.05 0 9.912 7.562 9.912 14.92 0 8.993-3.78 15.023-9.913 15.023zm30.557 10.015h15.533V79.863c0-1.43.103-2.861.511-3.883 1.125-2.862 3.68-5.826 7.972-5.826 5.62 0 7.869 4.395 7.869 10.833v27.695h15.534V79.148c0-14.717-7.665-21.564-17.885-21.564-8.38 0-13.387 4.804-15.431 8.074h-.307l-.715-6.95h-13.49c.204 4.497.409 9.71.409 15.943zm96.37-29.534c0-11.753-5.212-21.564-21.87-21.564-9.095 0-15.942 2.555-19.417 4.497l2.862 9.913c3.27-1.942 8.686-3.68 13.796-3.68 7.665 0 9.096 3.782 9.096 6.44v.612c-17.68 0-29.33 6.132-29.33 19.111 0 7.971 6.029 15.33 16.146 15.33 5.928 0 11.037-2.147 14.308-6.132h.306l.92 5.007h14c-.612-2.76-.817-7.358-.817-12.059zM177.31 90.49c0 .92-.103 1.84-.307 2.657-1.022 3.169-4.292 5.723-8.074 5.723-3.474 0-6.131-1.941-6.131-5.927 0-5.927 6.336-7.869 14.512-7.869zm22.278 18.191h15.534V83.44c0-1.329.102-2.453.307-3.475 1.021-4.905 4.905-7.869 10.628-7.869 1.737 0 2.964.205 4.19.409V57.89c-1.124-.204-1.84-.307-3.27-.307-4.906 0-10.935 3.066-13.49 10.424h-.409l-.613-9.3h-13.286c.307 4.293.41 9.096.41 16.454zm132.06-49.185h-8.993v30.25c0 1.737-.306 3.372-.817 4.598-1.635 4.088-5.825 8.278-11.855 8.278-8.073 0-11.037-6.438-11.037-15.84V59.497h-8.993v28.921c0 17.271 9.3 21.665 17.066 21.665 8.79 0 14.103-5.212 16.352-9.197h.204l.511 8.073h7.971c-.306-3.883-.408-8.38-.408-13.592zm9.811 36.688c0 4.394-.102 9.402-.408 12.774h7.767l.51-8.175h.205c3.781 6.54 9.402 9.3 16.556 9.3 11.037 0 22.278-8.79 22.278-26.571 0-14.921-8.584-25.14-20.848-25.14-7.97 0-13.694 3.474-16.862 8.993h-.204V36.4h-8.994zm8.994-15.943c0-1.43.204-2.657.51-3.78 1.738-6.746 7.46-11.038 13.593-11.038 9.606 0 14.716 8.482 14.716 18.497 0 11.344-5.519 19.009-15.023 19.009-6.438 0-11.752-4.292-13.49-10.526a17 17 0 0 1-.306-3.27zm83.8 5.621c.205-1.022.307-2.35.307-4.19 0-9.095-4.19-23.3-20.337-23.3-14.41 0-23.3 11.752-23.3 26.673 0 14.818 9.197 24.935 24.322 24.935 7.869 0 13.387-1.737 16.555-3.168l-1.635-6.438c-3.27 1.43-7.256 2.555-13.694 2.555-8.993 0-16.658-5.008-16.862-17.067zm-34.542-6.438c.715-6.234 4.599-14.614 13.796-14.614 10.016 0 12.468 8.89 12.366 14.614z"/><path fill="#499cd2" d="M496.694 108.787h-6.286c0-50.625-41.772-91.81-93.113-91.81v-6.285c54.811 0 99.399 43.995 99.399 98.095m4.343-33.767c-7.541-31.757-33.278-58.264-65.546-67.53l1.448-5.037c34.057 9.78 61.22 37.782 69.19 71.354zm7.077-29.803c-7.775-16.956-21.035-31.744-37.306-41.636L472.984 0c16.99 10.33 30.808 25.758 38.932 43.467z"/></svg>
